images/scissors.svg

<svg width="95" height="98" viewBox="0 0 95 98" fill="none" xmlns="http://www.w3.org/2000/svg">
<path d="M47.5803 5.77584C41.6236 6.29699 37.0962 11.5571 37.6169 17.5145L40.2968 48.1482L30.162 52.8735C26.7678 46.9757 19.3668 44.5552 13.0846 47.485C6.45122 50.5794 3.58174 58.4628 6.67428 65.0971C9.76801 71.7299 17.6523 74.6013 24.2873 71.5076C28.8398 69.3846 31.6184 65.0039 31.9143 60.3216L44.3265 54.5333L45.5196 68.1754C41.6133 70.7733 39.209 75.3698 39.6457 80.3736C40.2841 87.6662 46.7121 93.0583 54.003 92.4212C61.2956 91.7827 66.6885 85.3553 66.0511 78.0643C65.447 71.1594 59.6501 65.9605 52.8458 65.969L51.8707 54.8294L79.7388 41.8338C85.1593 39.3065 87.4502 32.7552 84.9231 27.3359L50.8559 43.2238L47.5803 5.77584ZM24.6756 62.9207C22.7785 66.2067 18.5764 67.3326 15.2905 65.4355C12.0045 63.5383 10.8787 59.3362 12.7758 56.0503C14.6733 52.7636 18.8749 51.6385 22.1609 53.5356C25.4468 55.4327 26.5732 59.634 24.6756 62.9207ZM58.7886 82.6158C56.8914 85.9018 52.6894 87.0277 49.4034 85.1306C46.1175 83.2334 44.9916 79.0314 46.8887 75.7455C48.7863 72.4588 52.9879 71.3336 56.2738 73.2307C59.5597 75.1278 60.6861 79.3291 58.7886 82.6158Z" fill="#99BAED"/>
</svg>

<svg width="95" height="98" fill="none" xmlns="http://www.w3.org/2000/svg"><path d="M47.58 5.776c-5.956.521-10.484 5.781-9.963 11.739l2.68 30.633-10.135 4.725c-3.394-5.897-10.795-8.318-17.077-5.388-6.634 3.094-9.503 10.978-6.41 17.612 3.093 6.633 10.977 9.504 17.612 6.41a13.249 13.249 0 007.627-11.185l12.413-5.789 1.193 13.642a13.253 13.253 0 00-5.874 12.199c.638 7.292 7.066 12.684 14.357 12.047 7.293-.638 12.686-7.066 12.048-14.357-.604-6.905-6.4-12.103-13.205-12.095l-.975-11.14 27.868-12.995c5.42-2.528 7.711-9.079 5.184-14.498L50.856 43.224 47.58 5.776zM24.676 62.92a6.87 6.87 0 11-11.9-6.871 6.87 6.87 0 0111.9 6.87zm34.113 19.695a6.87 6.87 0 11-11.9-6.871 6.87 6.87 0 0111.9 6.87z" fill="#906ab488"/></svg>
